!!!COM: Mozart, Wolfgang Amadeus
!!!OPR: Quartet in E-flat Major
!!!OTL:
!!!OMV: 4
!!!SCT: K 428
!!!SCA: Chronologisch-thematisches Verzeichnis sämtlicher Tonwerke Wolfgang Amade Mozarts (L. von Köchel; 1862, 2/1905, 3/1937, 1947)
!!!YOR: Breitkopf & Härtel Edition
!!!EED: Frances Bennion
!!!ENC: Frances Bennion
!!!CDT: 1756/1/27/-1791/12/5/
!!!OCY: Österreich
!!!YEC: Copyright (c) 1994, 2000 Center for Computer Assisted Research in the Humanities
!!!YEM: Rights to all derivative editions reserved.
!!!YEM: Refer to licensing agreement for further details.
!!!YEN: United States of America
**kern	**kern	**kern	**kern
*k[b-e-a-]	*k[b-e-a-]	*k[b-e-a-]	*k[b-e-a-]
*E-:	*E-:	*E-:	*E-:
*clefG	*clefG	*clefF	*clefC
*M2/4	*M2/4	*M2/4	*M2/4
=1	=1	=1	=1
8b-	8g	8G	8E-
8g	8e-	8B-	8G
4r	4r	4r	4r
=2	=2	=2	=2
8ee-	8cc	8C	8AA-
8cc	8a-	8E-	8C
4r	4r	4r	4r
=3	=3	=3	=3
8a-	8f	8D	8BB-
8f	8d	8B-	8A-
8f	8d	8B-	8A-
8f	8d	8B-	8A-
=4	=4	=4	=4
4f	4d	[4B-	4A-
8b-	8e-	8B-]	8G
8r	8r	8r	8r
=5	=5	=5	=5
8b-	8g	8G	8E-
8g	8e-	8B-	8G
4r	4r	4r	4r
=6	=6	=6	=6
8ee-	8cc	8C	8AA-
8cc	8a-	8E-	8C
4r	4r	4r	4r
=7	=7	=7	=7
8a-	8f	8D	8BB-
8f	8d	8F	8BB-
8f	8d	8A-	8BB-
8f	8d	8A-	8BB-
=8	=8	=8	=8
4f	4d	4A-	4BB-
8e-	8e-	8G	8EE-
8r	8r	8r	8r
=9	=9	=9	=9
16G	4e- 4G	4B-	4E-
16B-	.	.	.
16e-	.	.	.
16e-	.	.	.
16d	4f 4B-	4B-	4BB-
16f	.	.	.
16a-	.	.	.
16a-	.	.	.
=10	=10	=10	=10
16g	4g 4B-	4B-	4EE-
16b-	.	.	.
16ee-	.	.	.
16ee-	.	.	.
16ee-	4r	4r	4r
16dd	.	.	.
16cc	.	.	.
16b-	.	.	.
=11	=11	=11	=11
16a	8r	2r	2r
16b-	.	.	.
16cc	8e	.	.
16b-	.	.	.
16b-	8f	.	.
16a-	.	.	.
16g	8d	.	.
16f	.	.	.
=12	=12	=12	=12
16a-	8e-	2r	2r
16g	.	.	.
16f	8A-	.	.
16e-	.	.	.
16e-	4B-	.	.
16d	.	.	.
16c	.	.	.
16B-	.	.	.
=13	=13	=13	=13
16G	4e- 4G	4B-	4EE-
16B-	.	.	.
16e-	.	.	.
16e-	.	.	.
16d	4f 4B-	4B-	4BB-
16f	.	.	.
16a-	.	.	.
16a-	.	.	.
=14	=14	=14	=14
16g	4g 4B-	4B-	4E-
16b-	.	.	.
16ee-	.	.	.
16ee-	.	.	.
16dd	8r	8r	8r
16ee-	.	.	.
16ff	8a	8c	8E-
16gg	.	.	.
=15	=15	=15	=15
16gg	4b-	4d	8D
16ff	.	.	.
16ee-	.	.	8G
16dd	.	.	.
16dd	8g	8e-	8E-
16cc	.	.	.
16b-	16f	16d	8F
16a	16e-	16c	.
=16	=16	=16	=16
4a	4e-	4c	8B-
.	.	.	8F
8b-	8d	8B-	8BB-
8r	8r	8r	8r
=17	=17	=17	=17
8dd-	8b-	4r	4r
8b-	8g	.	.
4r	4r	8G	8E
.	.	8B-	8G
=18	=18	=18	=18
8g	8e	8d-	8B-
8a-	8f	8c	8A-
8cc	8a-	8F	8D
8a-	8f	8A-	8F
=19	=19	=19	=19
8f	8d	8c-	8A-
8g	8e-	8B-	8G
8b-	8g	4r	4r
8g	8e-	.	.
=20	=20	=20	=20
2e	2B-	2d-	8GG
.	.	.	8GG
.	.	.	8GG
.	.	.	8GG
=21	=21	=21	=21
16g	[2A-	[2c	[2AA-
16f	.	.	.
16a-	.	.	.
16g	.	.	.
16b-	.	.	.
16a-	.	.	.
16cc	.	.	.
16b-	.	.	.
=22	=22	=22	=22
8dd-	2A-_	2c_	2AA-_
8cc	.	.	.
8b-	.	.	.
8a-	.	.	.
=23	=23	=23	=23
8g	4A-]	4c]	4AA-]
8f	.	.	.
8g	4c	[4F	4AA
8e-	.	.	.
=24	=24	=24	=24
8d	4B-	4F]	4BB-
8f	.	.	.
8f	4r	4r	4r
8f	.	.	.
=25	=25	=25	=25
8f	4d	4B-	4BB-
8b-	.	.	.
8b-	4r	4r	4r
8b-	.	.	.
=26	=26	=26	=26
16b-	2r	2r	2r
16a	.	.	.
16cc	.	.	.
16a	.	.	.
16b-	.	.	.
16a	.	.	.
16cc	.	.	.
16a	.	.	.
=27	=27	=27	=27
8b-	8g	8G	8E-
8g	8e-	8B-	8G
4r	4r	4r	4r
=28	=28	=28	=28
8ee-	8cc	8C	8AA-
8cc	8a-	8E-	8C
4r	4r	4r	4r
=29	=29	=29	=29
8a-	8f	8D	8BB-
8f	8d	8B-	8A-
8f	8d	8B-	8A-
8f	8d	8B-	8A-
=30	=30	=30	=30
4f	4d	[4B-	4A-
8b-	8e-	8B-]	8G
8r	8r	8r	8r
=31	=31	=31	=31
16G	4e- 4G	4B-	4E-
16B-	.	.	.
16e-	.	.	.
16e-	.	.	.
16d	4f 4B-	4B-	4BB-
16f	.	.	.
16a-	.	.	.
16a-	.	.	.
=32	=32	=32	=32
16g	4g 4B-	4B-	4EE-
16b-	.	.	.
16ee-	.	.	.
16ee-	.	.	.
16ee-	4r	8r	8r
16dd	.	.	.
16cc	.	[8e-	8G
16b-	.	.	.
=33	=33	=33	=33
16b	8r	8e-]	8A-
16cc	.	.	.
16ee-	16cc	4e-	8A-
16cc	16a-	.	.
16b-	16g	.	8B-
16a-	16f	.	.
16g	16e-	16B-	8BB-
16f	16d	16A-	.
=34	=34	=34	=34
4f	4d	4A-	8E-
.	.	.	8BB-
8e-	8e-	8G	8EE-
8r	8r	8r	8r
=35	=35	=35	=35
4.e- 4.G	4.B-	4.B-	8EE-
.	.	.	8E-
.	.	.	8E-
8g	8e-	8B-	8E-
=36	=36	=36	=36
8f	8d	8A-	8E-
8e-	8e-	8G	8E-
8f	8d	8A-	8E-
8g	8e-	8B-	8E-
=37	=37	=37	=37
8a-	8e-	8A-	8C
8g	8d	8B-	8BB-
8a-	8e-	8A-	8C
8g	8d	8B-	8BB-
=38	=38	=38	=38
8f	8d	8B-	8AA-
8e-	8e-	8B-	8GG
4r	4r	4r	4r
=39	=39	=39	=39
4.g 4.B-	4.e- 4.G	8E-	8EE-
.	.	8e-	8E-
.	.	8e-	8E-
8b-	8g	8e-	8E-
=40	=40	=40	=40
8a-	8f	8e-	8E-
8g	8e-	8e-	8E-
8a-	8f	8e-	8E-
8b-	8g	8e-	8E-
=41	=41	=41	=41
8cc	8f	8d	8A-
8b-	8g	8e-	8G
8cc	8f	8d	8A-
8b-	8g	8e-	8G
=42	=42	=42	=42
8a-	8f	8B-	8D
8g	8e-	8B-	8E-
4r	4r	4r	4r
=43	=43	=43	=43
4.gg 4.cc 4.e-	2r	8r	8r
.	.	8G	8E-
.	.	8g	8e-
16ee-	.	8g	8e-
16cc	.	.	.
=44	=44	=44	=44
4cc	4.a-	8f	8d
.	.	8f	8d
4b	.	8f	8d
.	16f	8f	8d
.	16d	.	.
=45	=45	=45	=45
4.ddd	4c	8f	8G
.	.	8f	8G
.	4B	8f	8G
16bb	.	8dd	8G
16gg	.	.	.
=46	=46	=46	=46
4ff	4.gg	4dd	8C
.	.	.	8C
[4ee-	.	4cc	8C
.	16ee-	.	8C
.	16cc	.	.
=47	=47	=47	=47
8ee-]	4b	8r	8E-
16ff#	.	8e-	8E-
16gg	.	.	.
16ff	8cc	8g	8E-
16ee-	.	.	.
16dd	8g	8e-	8E-
16cc	.	.	.
=48	=48	=48	=48
16b-	4e-	4c	4F
16a	.	.	.
16cc	.	.	.
16b-	.	.	.
16dd	4r	4r	4r
16cc	.	.	.
16ee-	.	.	.
16dd	.	.	.
=49	=49	=49	=49
16ff	4c	4F	4AA
16ee-	.	.	.
16dd	.	.	.
16cc	.	.	.
16b-	4r	4r	4r
16a	.	.	.
16g	.	.	.
16f	.	.	.
=50	=50	=50	=50
16e-	4B-	4F	4BB-
16d	.	.	.
16f	.	.	.
16e-	.	.	.
16g	4r	4r	4r
16f	.	.	.
16a-	.	.	.
16g	.	.	.
=51	=51	=51	=51
16b-	4f	4B-	4D
16a-	.	.	.
16g	.	.	.
16f	.	.	.
16e-	4r	4r	4r
16d	.	.	.
16c	.	.	.
16B-	.	.	.
=52	=52	=52	=52
8A-	8r	8r	8r
8G	8g	8B-	8E-
[4gg	8g	8B-	8E-
.	8g	8B-	8E-
=53	=53	=53	=53
16gg]	8g	2B-	8E-
16aa	.	.	.
16gg	8f	.	8F
16aa	.	.	.
8bb-	4e	.	4G
8b-	.	.	.
=54	=54	=54	=54
16a	4f	4c	4F
16cc	.	.	.
16ff	.	.	.
16gg	.	.	.
16ff	8r	8r	8r
16ee-	.	.	.
16cc	[8f	16A	8E-
16a	.	16c	.
=55	=55	=55	=55
16b-	8f]	4d	8D
16dd	.	.	.
16ff	4f	.	8D
16gg	.	.	.
16ff	.	8r	8BB-
16dd	.	.	.
16cc	16e-	8f	8D
16b-	16d	.	.
=56	=56	=56	=56
16a	4c	4f	4F
16cc	.	.	.
16ff	.	.	.
16gg	.	.	.
16ff	8r	8r	8r
16ee-	.	.	.
16cc	[8f	16A	8E-
16a	.	16c	.
=57	=57	=57	=57
16b-	8f]	4d	8D
16dd	.	.	.
16ff	4f	.	8D
16gg	.	.	.
16ff	.	8r	8BB-
16dd	.	.	.
16cc	16e-	8f	8D
16b-	16d	.	.
=58	=58	=58	=58
8a	8c	4f	4F
8ff	8a	.	.
8f 8A	8f 8A	8c	8FF
8f 8A	8f 8A	8c	8FF
=59	=59	=59	=59
4f 4A	4f 4A	4c	4FF
4r	4r	4r	4r
=60	=60	=60	=60
2dd	2b-	[2f	2B-
=61	=61	=61	=61
8cc	2a	2f]	2F
24dd	.	.	.
24cc	.	.	.
24b-	.	.	.
8cc	.	.	.
8dd	.	.	.
=62	=62	=62	=62
8ee-	8b-	8B-	8G
8ee-	8b-	8B-	8G
[4ee-	[4b-	[4B-	[4G
=63	=63	=63	=63
4ee-]	4b-]	4B-]	4G]
4dd	4a	4d	4F
=64	=64	=64	=64
8dd	8g	8G	8E-
16cc	8r	8r	8r
16r	.	.	.
8cc	8f	8B-	8D
16b-	8r	8r	8r
16r	.	.	.
=65	=65	=65	=65
8b-	8e-	8f	8C
16a	8r	8r	8r
16r	.	.	.
8cc	8d	8f	8BB-
16b-	8r	8r	8r
16r	.	.	.
=66	=66	=66	=66
8cc	8a	8f	8F
8cc	8a	8f	8F
[4cc	[4a	[4f	[4F
=67	=67	=67	=67
4cc]	4a]	2f]	2F]
8a	8c	.	.
8f	8A	.	.
=68	=68	=68	=68
2dd	[2f	2B-	2BB-
=69	=69	=69	=69
8cc	2f]	2A	2FF
24dd	.	.	.
24cc	.	.	.
24b-	.	.	.
8cc	.	.	.
8dd	.	.	.
=70	=70	=70	=70
8ee-	8e-	8B-	8GG
8ee-	8e-	8B-	8GG
[4ee-	[4e-	[4B-	[4GG
=71	=71	=71	=71
4ee-]	4e-]	4B-]	4GG]
4dd	4f	4A	4FF
=72	=72	=72	=72
8dd	8g	8G	8EE-
16cc	8r	8r	8r
16r	.	.	.
8cc	8f	8B-	8DD
16b-	8r	8r	8r
16r	.	.	.
=73	=73	=73	=73
8dd	8g	8e-	8EE-
16cc	8r	8r	8r
16r	.	.	.
8cc	8e-	8c	8FF
16a	8r	8r	8r
16r	.	.	.
=74	=74	=74	=74
8b-	4d	4B-	4BB-
8ff	.	.	.
8ff	4r	4r	4r
8ff	.	.	.
=75	=75	=75	=75
8b-	2r	2r	2r
8bb-	.	.	.
8bb-	.	.	.
8bb-	.	.	.
=76	=76	=76	=76
2ddd	2dd	12B-	4B-
.	.	12d	.
.	.	12f	.
.	.	12b-	4r
.	.	12dd	.
.	.	12b-	.
=77	=77	=77	=77
8ccc	8cc	12a	4F
.	.	12g	.
24ddd	24dd	.	.
24ccc	24cc	12f	.
24bb-	24b-	.	.
8ccc	8cc	12e-	4r
.	.	12d	.
8ddd	8dd	.	.
.	.	12c	.
=78	=78	=78	=78
8eee-	8ee-	12B-	4G
.	.	12A	.
8eee-	8ee-	.	.
.	.	12G	.
[4eee-	[4ee-	12F	4GG
.	.	12E-	.
.	.	12D	.
=79	=79	=79	=79
4eee-]	4ee-]	12C	4AA
.	.	12c	.
.	.	12A	.
4ddd	4dd	12F	4BB-
.	.	12B-	.
.	.	12A	.
=80	=80	=80	=80
8ddd	8dd	12G	8E-
.	.	12g	.
16ccc	16cc	.	8r
16r	16r	12e-	.
8ccc	8cc	12f	8D
.	.	12d	.
16bb-	16b-	.	8r
16r	16r	12B-	.
=81	=81	=81	=81
8bb-	8b-	12f	8C
.	.	12e-	.
16aa	16a	.	8r
16r	16r	12c	.
8ccc	8cc	12f	8BB-
.	.	12d	.
16bb-	16b-	.	8r
16r	16r	12B-	.
=82	=82	=82	=82
8ccc	8cc	12A	4F
.	.	12c	.
8ccc	8cc	.	.
.	.	12f	.
[4ccc	[4cc	12a	4FF
.	.	12cc	.
.	.	12b-	.
=83	=83	=83	=83
4ccc]	4cc]	12a	2r
.	.	12g	.
.	.	12f	.
8aa	8a	12e-	.
.	.	12d	.
8ff	8f	.	.
.	.	12c	.
=84	=84	=84	=84
2ddd	2dd	4B-	12BB-
.	.	.	12D
.	.	.	12F
.	.	[4f	12B-
.	.	.	12d
.	.	.	12B-
=85	=85	=85	=85
8ccc	8cc	4f]	12A
.	.	.	12F
24ddd	24dd	.	.
24ccc	24cc	.	12G
24bb-	24b-	.	.
8ccc	8cc	4f	12A-
.	.	.	12B-
8ddd	8dd	.	.
.	.	.	12A-
=86	=86	=86	=86
8eee-	8ee-	3B-	12G
.	.	.	12F
8eee-	8ee-	.	.
.	.	.	12E-
[4eee-	[4ee-	.	12D
.	.	12A	12C
.	.	12B-	12BB-
=87	=87	=87	=87
4eee-]	4ee-]	4c	12AA
.	.	.	12GG
.	.	.	12FF
4ddd	4dd	4B-	12BB-
.	.	.	12C
.	.	.	12D
=88	=88	=88	=88
8ddd	8dd	8g	12E-
.	.	.	12F
16ccc	16cc	8r	.
16r	16r	.	12E-
8ccc	8cc	8f	12D
.	.	.	12E-
16bb-	16b-	8r	.
16r	16r	.	12D
=89	=89	=89	=89
8ddd	8dd	8e-	12E-
.	.	.	12F
16ccc	16cc	8r	.
16r	16r	.	12E-
8ccc	8cc	8e- 8c	12F
.	.	.	12G
16aa	16a	8r	.
16r	16r	.	12F
=90	=90	=90	=90
16bb-	16dd	4d 4B-	4B-
16ccc	16cc	.	.
16ddd	16b-	.	.
16ccc	16cc	.	.
16bb-	16dd	4r	4r
16aa	16ff	.	.
16gg	16ee-	.	.
16ff	16dd	.	.
=91	=91	=91	=91
16ee-	16cc	2r	4F
16dd	16b-	.	.
16cc	16a	.	.
16b-	16b-	.	.
16a	8cc	.	4r
16g	.	.	.
16f	8r	.	.
16e-	.	.	.
=92	=92	=92	=92
8d	16d	16b-	4BB-
.	16c	16cc	.
4ff	16B-	16dd	.
.	16c	16cc	.
.	16d	16b-	4r
.	16f	16a	.
[8ff	16e-	16g	.
.	16d	16f	.
=93	=93	=93	=93
8ff]	16c	16e-	4FF
.	16B-	16d	.
4ff	16A	16c	.
.	16B-	16B-	.
.	8c	16A	4r
.	.	16G	.
8aa	8r	16F	.
.	.	16E-	.
=94	=94	=94	=94
16bb-	16dd	8D	4B-
16ccc	16cc	.	.
16ddd	16b-	4f	.
16ccc	16cc	.	.
16bb-	16dd	.	4r
16aa	16ff	.	.
16gg	16ee-	[8f	.
16ff	16dd	.	.
=95	=95	=95	=95
16ee-	16cc	8f]	4F
16dd	16b-	.	.
16cc	16a	4f	.
16b-	16b-	.	.
16a	8cc	.	4r
16g	.	.	.
16f	8r	8a	.
16e-	.	.	.
=96	=96	=96	=96
8d	16d	16b-	4BB-
.	16c	16cc	.
4ff	16B-	16dd	.
.	16c	16cc	.
.	16d	16b-	4r
.	16f	16a	.
[8ff	16e-	16g	.
.	16d	16f	.
=97	=97	=97	=97
8ff]	16c	16e-	4FF
.	16B-	16d	.
4ff	16A	16c	.
.	16B-	16B-	.
.	8c	16A	4r
.	.	16G	.
8aa	8r	16F	.
.	.	16E-	.
=98	=98	=98	=98
4bb-	16ff	4D	8BB-
.	16ee-	.	.
.	16dd	.	8BB-
.	16ee-	.	.
4r	16ff	16d	8BB-
.	16gg	16e-	.
.	16aa-	16f	8BB-
.	16gg	16e-	.
=99	=99	=99	=99
2r	16aa-	8f	8D
.	16gg	.	.
.	16ff	8d	8D
.	16ee-	.	.
.	16dd	8B-	8D
.	16cc	.	.
.	16b-	8B-	8D
.	16a-	.	.
=100	=100	=100	=100
16gg	8g	8B-	8E-
16ff	.	.	.
16ee-	4g	4B-	8E-
16ff	.	.	.
16gg	.	.	8E-
16aa	.	.	.
16bb-	8g	[8B-	8E-
16aa	.	.	.
=101	=101	=101	=101
16bb-	8e-	8B-]	8G
16aa	.	.	.
16gg	4b-	4e-	8G
16ff	.	.	.
16ee-	.	.	8G
16dd	.	.	.
16cc	8b-	8e-	8G
16b-	.	.	.
=102	=102	=102	=102
8f	8b-	8d	8F
8ff	8b-	8d	8F
8dd	8b-	8d	8F
16cc	8b-	8d	8F
16b-	.	.	.
=103	=103	=103	=103
2cc	8a	8e-	8F
.	8a	8e-	8F
.	8a	8e-	8F
.	8a	8e-	8F
=104	=104	=104	=104
4b-	4b-	4d	4BB-
4bb-	4dd	4f	4r
=105	=105	=105	=105
4r	4r	4r	4D
4a-	4f	4B-	4r
=106	=106	=106	=106
4r	4r	4r	4E-
4g	4e-	4B-	4r
=107	=107	=107	=107
4r	4r	4r	4E
4gg	4dd-	4b-	4r
=108	=108	=108	=108
4r	4r	4r	4F
4ff	4dd	4b-	4r
=109	=109	=109	=109
4r	4r	4r	4FF
4cc	4a	4e-	4r
=110	=110	=110	=110
4b-	4b-	4d	8BB-
.	.	.	8BB-
4r	4r	4r	8BB-
.	.	.	8BB-
=111	=111	=111	=111
8b-	4d	4B-	8BB-
8bb-	.	.	8BB-
8aa	8e-	8c	8BB-
[8aa-	8f	8d	8BB-
=112	=112	=112	=112
8aa-]	4g	4e-	8BB-
8gg	.	.	8BB-
8ff	8a	8f	8BB-
8ee	8b-	8g	8BB-
=113	=113	=113	=113
8ee-	2cc	[2a	8BB-
16dd	.	.	8BB-
16ee-	.	.	.
8ff	.	.	8BB-
8ee-	.	.	8BB-
=114	=114	=114	=114
4cc#	2f	4a]	8BB-
.	.	.	8BB-
8dd	.	8b-	8BB-
8r	.	8r	8BB-
=115	=115	=115	=115
8b-	4d	4B-	8BB-
8bb-	.	.	8BB-
8aa	8e-	8c	8BB-
[8aa-	8f	8d	8BB-
=116	=116	=116	=116
8aa-]	4g	4e-	8EE-
8gg	.	.	8EE-
8ff	[4b-	8d	8FF
8ee	.	8c#	8GG
=117	=117	=117	=117
8ff	8b-]	8d	8FF
8dd	4f	8B-	8FF
8ee-	.	8c	8FF
8cc	8e-	8A	8FF
=118	=118	=118	=118
4b-	4d	4B-	8BB-
.	.	.	8D
4r	4r	4r	8F
.	.	.	8D
=119	=119	=119	=119
8b-	4d	4B-	8BB-
8bb-	.	.	8BB-
8aa	8e-	8c	8BB-
[8aa-	8f	8d	8BB-
=120	=120	=120	=120
8aa-]	4g	4e-	8BB-
8gg	.	.	8BB-
8ff	8a	8f	8BB-
8ee	8b-	8g	8BB-
=121	=121	=121	=121
8ee-	2cc	[2a	8BB-
16dd	.	.	8BB-
16ee-	.	.	.
8ff	.	.	8BB-
8ee-	.	.	8BB-
=122	=122	=122	=122
4cc#	2f	4a]	8BB-
.	.	.	8BB-
8dd	.	4b-	8BB-
8r	.	.	8BB-
=123	=123	=123	=123
8b-	4d	4B-	8BB-
8bb-	.	.	8BB-
8aa	8e-	8c	8BB-
[8aa-	8f	8d	8BB-
=124	=124	=124	=124
8aa-]	4g	4e-	8EE-
8gg	.	.	8EE-
8ff	[4b-	8d	8FF
8ee	.	8c#	8GG
=125	=125	=125	=125
8ff	8b-]	8d	8FF
8dd	4f	8B-	8FF
8ee-	.	8c	8FF
8cc	8e-	8A	8FF
=126	=126	=126	=126
4b-	4d	8B-	4BB-
.	.	8f	.
4r	4r	8f	4r
.	.	8f	.
=127	=127	=127	=127
8ff	8dd	8f	4r
8dd	8b-	8f	.
8ee-	8cc	8f	4F
8cc	8a	8f	.
=128	=128	=128	=128
4dd	4b-	8f	4B-
.	.	8f	.
4r	4r	8f	4BB-
.	.	8f	.
=129	=129	=129	=129
8ff	8dd	8f	4r
8dd	8b-	8f	.
8ee-	8cc	8f	4F
8cc	8a	8e-	.
=130	=130	=130	=130
4b-	4b-	4d	4BB-
4r	4r	4r	4B-
=131	=131	=131	=131
8b-	8d	2r	2r
8dd	8b-	.	.
8cc	8a	.	.
8ee-	8cc	.	.
=132	=132	=132	=132
8cc#	8a	4r	4r
8dd	8b-	.	.
4r	4r	4f	4B-
=133	=133	=133	=133
8dd	8b-	2r	2r
8ff	8dd	.	.
8ee-	8cc	.	.
8gg	8ee-	.	.
=134	=134	=134	=134
8ee	8cc#	4r	4r
8ff	8dd	.	.
4r	4r	4f	4B-
=135	=135	=135	=135
8ff	8dd	2r	2r
8aa-	8ff	.	.
8gg	8ee-	.	.
8bb-	8gg	.	.
=136	=136	=136	=136
8gg	8ee	4r	4r
8aa-	8ff	.	.
4r	4r	8c#	8A
.	.	8d	8B-
=137	=137	=137	=137
8gg	8ee	4r	4r
8aa-	8ff	.	.
4r	4r	8c#	8A
.	.	8d	8B-
=138	=138	=138	=138
8gg	8ee	4r	4r
8aa-	8ff	.	.
4r	4r	8e-	8c-
.	.	8d	8B-
=139	=139	=139	=139
2r	2r	2r	2r
=140	=140	=140	=140
8b-	8g	8G	8E-
8g	8e-	8B-	8G
4r	4r	4r	4r
=141	=141	=141	=141
8ee-	8cc	8C	8AA-
8cc	8a-	8E-	8C
4r	4r	4r	4r
=142	=142	=142	=142
8a-	8f	8D	8BB-
8f	8d	8B-	8A-
8f	8d	8B-	8A-
8f	8d	8B-	8A-
=143	=143	=143	=143
4f	4d	[4B-	4A-
8b-	8e-	8B-]	8G
8r	8r	8r	8r
=144	=144	=144	=144
8b-	8g	8G	8E-
8g	8e-	8B-	8G
4r	4r	4r	4r
=145	=145	=145	=145
8ee-	8cc	8C	8AA-
8cc	8a-	8E-	8C
4r	4r	4r	4r
=146	=146	=146	=146
8a-	8f	8D	8BB-
8f	8d	8F	8BB-
8f	8d	8A-	8BB-
8f	8d	8A-	8BB-
=147	=147	=147	=147
4f	4d	4A-	4BB-
8e-	8e-	8G	8EE-
8r	8r	8r	8r
=148	=148	=148	=148
16G	4e- 4G	4B-	4E-
16B-	.	.	.
16e-	.	.	.
16e-	.	.	.
16d	4f 4B-	4B-	4BB-
16f	.	.	.
16a-	.	.	.
16a-	.	.	.
=149	=149	=149	=149
16g	4g 4B-	4B-	4EE-
16b-	.	.	.
16ee-	.	.	.
16ee-	.	.	.
16ee-	4r	4r	4r
16dd	.	.	.
16cc	.	.	.
16b-	.	.	.
=150	=150	=150	=150
16a	8r	2r	2r
16b-	.	.	.
16cc	8e	.	.
16b-	.	.	.
16b-	8f	.	.
16a-	.	.	.
16g	8d	.	.
16f	.	.	.
=151	=151	=151	=151
16a-	8e-	2r	2r
16g	.	.	.
16f	8A-	.	.
16e-	.	.	.
16e-	4B-	.	.
16d	.	.	.
16c	.	.	.
16B-	.	.	.
=152	=152	=152	=152
16G	4e- 4G	4B-	4EE-
16B-	.	.	.
16e-	.	.	.
16e-	.	.	.
16d	4f 4B-	4B-	4BB-
16f	.	.	.
16a-	.	.	.
16a-	.	.	.
=153	=153	=153	=153
16g	4g 4B-	4B-	4E-
16b-	.	.	.
16ee-	.	.	.
16ee-	.	.	.
16dd	8r	8r	8r
16ee-	.	.	.
16ff	8a	8c	8E-
16gg	.	.	.
=154	=154	=154	=154
16gg	4b-	4d	8D
16ff	.	.	.
16ee-	.	.	8G
16dd	.	.	.
16dd	8g	8e-	8E-
16cc	.	.	.
16b-	16f	16d	8F
16a	16e-	16c	.
=155	=155	=155	=155
4a	4e-	4c	8B-
.	.	.	8F
8b-	8d	8B-	8BB-
8r	8r	8r	8r
=156	=156	=156	=156
8dd-	8b-	4r	4r
8b-	8g	.	.
4r	4r	8G	8E
.	.	8B-	8G
=157	=157	=157	=157
8g	8e	8d-	8B-
8a-	8f	8c	8A-
8cc	8a-	8F	8D
8a-	8f	8A-	8F
=158	=158	=158	=158
8f	8d	8c-	8A-
8g	8e-	8B-	8G
8b-	8g	4r	4r
8g	8e-	.	.
=159	=159	=159	=159
2e	2B-	2d-	8GG
.	.	.	8GG
.	.	.	8GG
.	.	.	8GG
=160	=160	=160	=160
16g	[2A-	[2c	[2AA-
16f	.	.	.
16a-	.	.	.
16g	.	.	.
16b-	.	.	.
16a-	.	.	.
16cc	.	.	.
16b-	.	.	.
=161	=161	=161	=161
8dd-	2A-_	2c_	2AA-_
8cc	.	.	.
8b-	.	.	.
8a-	.	.	.
=162	=162	=162	=162
8g	4A-]	4c]	4AA-]
8f	.	.	.
8g	4c	[4F	4AA
8e-	.	.	.
=163	=163	=163	=163
8d	4B-	4F]	4BB-
8f	.	.	.
8f	4r	4r	4r
8f	.	.	.
=164	=164	=164	=164
8f	4d	4B-	4BB-
8b-	.	.	.
8b-	4r	4r	4r
8b-	.	.	.
=165	=165	=165	=165
16b-	2r	2r	2r
16a	.	.	.
16cc	.	.	.
16a	.	.	.
16b-	.	.	.
16a	.	.	.
16cc	.	.	.
16a	.	.	.
=166	=166	=166	=166
8b-	8g	8G	8E-
8g	8e-	8B-	8G
4r	4r	4r	4r
=167	=167	=167	=167
8ee-	8cc	8C	8AA-
8cc	8a-	8E-	8C
4r	4r	4r	4r
=168	=168	=168	=168
8a-	8f	8D	8BB-
8f	8d	8B-	8A-
8f	8d	8B-	8A-
8f	8d	8B-	8A-
=169	=169	=169	=169
4f	4d	[4B-	4A-
8b-	8e-	8B-]	8G
8r	8r	8r	8r
=170	=170	=170	=170
16G	4e- 4G	4B-	4E-
16B-	.	.	.
16e-	.	.	.
16e-	.	.	.
16d	4f 4B-	4B-	4BB-
16f	.	.	.
16a-	.	.	.
16a-	.	.	.
=171	=171	=171	=171
16g	4g 4B-	4B-	4EE-
16b-	.	.	.
16ee-	.	.	.
16ee-	.	.	.
16ee-	4r	8r	8r
16dd	.	.	.
16cc	.	[8e-	8G
16b-	.	.	.
=172	=172	=172	=172
16b	8r	8e-]	8A-
16cc	.	.	.
16ee-	16cc	4e-	8A-
16cc	16a-	.	.
16b-	16g	.	8B-
16a-	16f	.	.
16g	16e-	16B-	8BB-
16f	16d	16A-	.
=173	=173	=173	=173
4f	4d	4A-	8E-
.	.	.	8BB-
8e-	8e-	8G	8EE-
8r	8r	8r	8r
=174	=174	=174	=174
4.e- 4.G	4.G	4.e-	8EE-
.	.	.	8E-
.	.	.	8E-
8f	8A-	8d	8E-
=175	=175	=175	=175
8g	8B-	8d-	8E-
8a-	8e-	8c	8E-
8b-	8g	8B-	8E-
8cc	8a-	8A-	8E-
=176	=176	=176	=176
8dd-	8b-	8G	8E-
8b-	8g	8B-	8E-
8dd-	8b-	8G	8E-
8b-	8g	8B-	8E-
=177	=177	=177	=177
8dd-	8b-	8G	8E-
8b-	8g	8B-	8E-
4r	4r	4r	8D-
.	.	.	8D-
=178	=178	=178	=178
4.e 4.G	4.d-	4.B-	8CC
.	.	.	8C
.	.	.	8C
8f	8c	8A-	8C
=179	=179	=179	=179
8g	8e	8B-	8C
8a-	8f	8A-	8C
8b-	8g	8G	8C
8cc	8a-	8F	8C
=180	=180	=180	=180
8dd-	8b-	8E	8C
8b-	8g	8G	8C
8dd-	8b-	8E	8C
8b-	8g	8G	8C
=181	=181	=181	=181
8dd-	8b-	8E	8C
8b-	8g	8G	8C
4r	4r	4r	8C#
.	.	.	8C#
=182	=182	=182	=182
4.f# 4.A	4.c	4.e-	8DD
.	.	.	8D
.	.	.	8D
8g	8B-	8d	8D
=183	=183	=183	=183
8a	8f#	8c	8D
8b-	8g	8B-	8D
8cc	8a	8A	8D
8dd	8b-	8G	8D
=184	=184	=184	=184
8ee-	8cc	8F#	8D
8cc	8a	8A	8D
8ee-	8cc	8F#	8D
8cc	8a	8A	8D
=185	=185	=185	=185
8ee-	8cc	8F#	8D
8cc	8a	8A	8D
4r	4r	4r	8D
.	.	.	8D
=186	=186	=186	=186
4.ddd	2r	8B-	8GG
.	.	8g	8B-
.	.	8b-	8B-
16bb-	.	8dd	8B-
16gg	.	.	.
=187	=187	=187	=187
4gg	4.ee-	8cc	8A
.	.	8cc	8A
4ff#	.	8cc	8A
.	16cc	8cc	8A
.	16a	.	.
=188	=188	=188	=188
4.aa	4g	8cc	8D
.	.	8cc	8D
.	8f#	8cc	8D
16ff#	8a	8d	8D
16dd	.	.	.
=189	=189	=189	=189
4cc	4a	4.dd	8G
.	.	.	8G
4b-	[4g	.	8G
.	.	16b-	8G
.	.	16g	.
=190	=190	=190	=190
4.ddd-	8g]	4f	8B-
.	4g	.	8B-
.	.	4e	8B-
16bb-	8g	.	8B-
16gg	.	.	.
=191	=191	=191	=191
4ff	4.dd-	8b-	8c
.	.	8b-	8c
4ee	.	8b-	8c
.	16b-	8b-	8c
.	16g	.	.
=192	=192	=192	=192
4.gg	4f	8b-	8C
.	.	8b-	8C
.	8e	8b-	8C
16ee	8g	8c	8C
16cc	.	.	.
=193	=193	=193	=193
4b-	4g	4.cc	8F
.	.	.	8F
4a-	4f	.	8F
.	.	16a-	8F
.	.	16f	.
=194	=194	=194	=194
8a-	8r	4e	8AA-
16bb	8A-	.	8AA-
16ccc	.	.	.
16bb-	8c	8f	8AA-
16aa-	.	.	.
16gg	8A-	8c	8AA-
16ff	.	.	.
=195	=195	=195	=195
16ee-	4f	4A-	4BB-
16dd	.	.	.
16ff	.	.	.
16ee-	.	.	.
16gg	4r	4r	4r
16ff	.	.	.
16aa-	.	.	.
16gg	.	.	.
=196	=196	=196	=196
16bb-	4f	4B-	4D
16aa-	.	.	.
16gg	.	.	.
16ff	.	.	.
16ee-	4r	4r	4r
16dd	.	.	.
16cc	.	.	.
16b-	.	.	.
=197	=197	=197	=197
16a-	4e-	4B-	4E-
16g	.	.	.
16b-	.	.	.
16a-	.	.	.
16cc	4r	4r	4r
16b-	.	.	.
16dd-	.	.	.
16cc	.	.	.
=198	=198	=198	=198
16ee-	4e-	4B-	4G
16dd-	.	.	.
16cc	.	.	.
16b-	.	.	.
16a-	4r	4r	4r
16g	.	.	.
16f	.	.	.
16e-	.	.	.
=199	=199	=199	=199
8d-	8r	8r	8r
8c	8e-	8A-	8AA-
[4cc	8e-	8A-	8A-
.	8e-	8A-	8A-
=200	=200	=200	=200
16cc]	8e-	8A-	8A-
16dd	.	.	.
16cc	8a-	8f	8B-
16dd	.	.	.
8ee-	8g	8e-	4c
8e-	8a	8e-	.
=201	=201	=201	=201
16d	4b-	4f	4B-
16b-	.	.	.
16bb-	.	.	.
16bb-	.	.	.
16bb-	8r	8r	8r
16aa-	.	.	.
16gg	[8b-	8d	8A-
16ff	.	.	.
=202	=202	=202	=202
16ee-	8b-]	8e-	8G
16dd	.	.	.
16cc	8g	4e-	8E-
16b-	.	.	.
16a-	8a-	.	8c
16g	.	.	.
16f	8cc	8c	8A-
16e-	.	.	.
=203	=203	=203	=203
16d	4f	4B-	4B-
16b-	.	.	.
16bb-	.	.	.
16bb-	.	.	.
16bb-	8r	8r	8r
16aa-	.	.	.
16gg	[8b-	8d	8A-
16ff	.	.	.
=204	=204	=204	=204
16ee-	8b-]	8e-	8G
16dd	.	.	.
16cc	8g	4e-	8E-
16b-	.	.	.
16a-	8a-	.	8c
16g	.	.	.
16f	8cc	8c	8A-
16e-	.	.	.
=205	=205	=205	=205
8d	4f	4B-	4B-
8bb-	.	.	.
8B-	8B-	8B-	8BB-
8B-	8B-	8B-	8BB-
=206	=206	=206	=206
4B-	4B-	4B-	4BB-
4r	4r	4r	4r
=207	=207	=207	=207
2g	2e-	[2B-	2E-
=208	=208	=208	=208
8f	2d	2B-]	2BB-
24g	.	.	.
24f	.	.	.
24e-	.	.	.
8f	.	.	.
8g	.	.	.
=209	=209	=209	=209
8a-	8e-	8A-	8C
8a-	8e-	8A-	8C
[4a-	[4e-	[4A-	[4C
=210	=210	=210	=210
4a-]	4e-]	4A-]	4C]
4g	4d	4B-	4BB-
=211	=211	=211	=211
8g	8c	8F	8AA-
16f	8r	8r	8r
16r	.	.	.
8f	8B-	8G	8GG
16e-	8r	8r	8r
16r	.	.	.
=212	=212	=212	=212
8e-	8B-	8A-	8FF
16d	8r	8r	8r
16r	.	.	.
8f	8B-	8G	8EE-
16e-	8r	8r	8r
16r	.	.	.
=213	=213	=213	=213
8f	8B-	8D	8BB-
8f	8B-	8D	8BB-
[4f	[4B-	[4D	[4BB-
=214	=214	=214	=214
4f]	2B-]	4D]	2BB-]
8d	.	8F	.
8B-	.	8D	.
=215	=215	=215	=215
2gg	[2b-	2e-	2e-
=216	=216	=216	=216
8ff	2b-]	2d	2B-
24gg	.	.	.
24ff	.	.	.
24ee-	.	.	.
8ff	.	.	.
8gg	.	.	.
=217	=217	=217	=217
8aa-	8a-	8e-	8c
8aa-	8a-	8e-	8c
[4aa-	[4a-	[4e-	[4c
=218	=218	=218	=218
4aa-]	4a-]	4e-]	4c]
4gg	4b-	4d	4B-
=219	=219	=219	=219
8gg	8cc	8c	8A-
16ff	8r	8r	8r
16r	.	.	.
8ff	8b-	8g	8G
16ee-	8r	8r	8r
16r	.	.	.
=220	=220	=220	=220
8gg	8cc	8f	8A-
16ff	8r	8r	8r
16r	.	.	.
8ff	8a-	8f	8B-
16dd	8r	8r	8r
16r	.	.	.
=221	=221	=221	=221
8ee-	4g	4e-	4E-
8bb-	.	.	.
8bb-	4r	4r	4r
8bb-	.	.	.
=222	=222	=222	=222
8ee-	2r	2r	2r
8eee-	.	.	.
8eee-	.	.	.
8eee-	.	.	.
=223	=223	=223	=223
12r	2g	2e-	2E-
12G	.	.	.
12B-	.	.	.
12e-	.	.	.
12g	.	.	.
12a	.	.	.
=224	=224	=224	=224
12b-	8f	8d	2BB-
12d	.	.	.
.	24g	24e-	.
12f	24f	24d	.
.	24e-	24c	.
12b-	8f	8d	.
12cc	.	.	.
.	8g	8e	.
12dd-	.	.	.
=225	=225	=225	=225
12cc	8a-	8f	2FF
12ff	.	.	.
.	8a-	8f	.
12ff	.	.	.
12ff	[4a-	[4f	.
12aa-	.	.	.
12aa-	.	.	.
=226	=226	=226	=226
12aa-	4a-]	4f]	2CC
12ccc	.	.	.
12ccc	.	.	.
12ccc	4g	4e-	.
12ccc	.	.	.
12ccc	.	.	.
=227	=227	=227	=227
12r	8g	8c	8AA-
12ccc	.	.	.
.	16f	8r	8r
12aa-	16r	.	.
12r	8f	8B-	8GG
12bb-	.	.	.
.	16e-	8r	8r
12gg	16r	.	.
=228	=228	=228	=228
12r	8e-	8A-	8FF
12aa-	.	.	.
.	16d	8r	8r
12ff	16r	.	.
12r	8f	8G	8EE-
12gg	.	.	.
.	16e-	8r	8r
12ee-	16r	.	.
=229	=229	=229	=229
12ff	8f	8d	[2BB-
12bb-	.	.	.
.	8f	8d	.
12aa	.	.	.
12aa-	[4f	[4d	.
12gg	.	.	.
12gg-	.	.	.
=230	=230	=230	=230
12ff	4f]	4d]	2BB-]
12ee	.	.	.
12ee-	.	.	.
12dd	8d	8F	.
12cc	.	.	.
.	8B-	8D	.
12b-	.	.	.
=231	=231	=231	=231
2gg	[2b-	12r	2E-
.	.	12ee-	.
.	.	12b-	.
.	.	12g	.
.	.	12e-	.
.	.	12B-	.
=232	=232	=232	=232
8ff	2b-]	12d-	4BB-
.	.	12B-	.
24gg	.	.	.
24ff	.	12A-	.
24ee-	.	.	.
8ff	.	12G	4EE-
.	.	12E-	.
8gg	.	.	.
.	.	12D-	.
=233	=233	=233	=233
8aa-	8cc	12C	4AA-
.	.	12E-	.
8aa-	8cc	.	.
.	.	12A-	.
[4aa-	[4ff	12c	4FF
.	.	12f	.
.	.	12a-	.
=234	=234	=234	=234
4aa-]	4ff]	12a	4DD
.	.	12b-	.
.	.	12b-	.
4gg	4ee-	12b-	4EE-
.	.	12b	.
.	.	12b	.
=235	=235	=235	=235
8gg	8cc	12r	8AA-
.	.	12cc	.
16ff	8r	.	8r
16r	.	12a-	.
8ff	8b-	12r	8GG
.	.	12b-	.
16ee-	8r	.	8r
16r	.	12g	.
=236	=236	=236	=236
8gg	8cc	12r	8AA-
.	.	12c	.
16ff	8r	.	8r
16r	.	12a-	.
8ff	8a-	12r	8BB-
.	.	12B-	.
16dd	8r	.	8r
16r	.	12f	.
=237	=237	=237	=237
16ee-	8b- 8g	4e-	4E-
16ff	.	.	.
16gg	4b- 4g	.	.
16ff	.	.	.
16ee-	.	4r	4r
16dd	.	.	.
16cc	[8b- 8g	.	.
16b-	.	.	.
=238	=238	=238	=238
16a-	8b- 8a-]	2r	4BB-
16g	.	.	.
16f	4b- 4a-	.	.
16e-	.	.	.
16d	.	.	4r
16f	.	.	.
16a-	[8b- 8a-	.	.
16f	.	.	.
=239	=239	=239	=239
8e-	8b- 8g]	16e-	4EE-
.	.	16f	.
4b-	4g 4B-	16g	.
.	.	16f	.
.	.	16e-	4r
.	.	16d	.
[8b-	[8g 8B-	16c	.
.	.	16B-	.
=240	=240	=240	=240
8b-]	8a- 8B-]	16A-	4BB-
.	.	16G	.
4b-	4a- 4B-	16F	.
.	.	16E-	.
.	.	16D	4r
.	.	16F	.
16ff	[8a- 8B-	16A-	.
16dd	.	16F	.
=241	=241	=241	=241
16ee-	8g 8B-]	8E-	4E-
16ff	.	.	.
16gg	4b- 4g	4B-	.
16ff	.	.	.
16ee-	.	.	4r
16dd	.	.	.
16cc	[8b- 8g	[8B-	.
16b-	.	.	.
=242	=242	=242	=242
16a-	8b- 8a-]	8B-]	4BB-
16g	.	.	.
16f	4b- 4a-	4B-	.
16e-	.	.	.
16d	.	.	4r
16f	.	.	.
16a-	[8b- 8a-	16f	.
16f	.	16d	.
=243	=243	=243	=243
8e-	8b- 8g]	16e-	4EE-
.	.	16f	.
4b-	4g 4B-	16g	.
.	.	16f	.
.	.	16e-	4r
.	.	16d	.
[8b-	[8g 8B-	16c	.
.	.	16B-	.
=244	=244	=244	=244
8b-]	8a- 8B-]	16A-	4BB-
.	.	16G	.
4b-	4a- 4B-	16F	.
.	.	16E-	.
.	.	16D	4r
.	.	16F	.
8dd	8a- 8B-	16A-	.
.	.	16F	.
=245	=245	=245	=245
4ee-	16g	4E-	8E-
.	16f	.	.
.	16e-	.	8E-
.	16f	.	.
4r	16g	16e-	8E-
.	16a-	16f	.
.	16b-	16g	8E-
.	16cc	16a-	.
=246	=246	=246	=246
2r	16dd-	8b-	8G
.	16cc	.	.
.	16b-	4e-	8G
.	16a-	.	.
.	16g	.	8G
.	16f	.	.
.	16e-	8B-	8G
.	16d-	.	.
=247	=247	=247	=247
16cc	8c	8A-	8A-
16b-	.	.	.
16a-	4e-	4c	8A-
16g	.	.	.
16a-	.	.	8A-
16b-	.	.	.
16cc	[8e-	[8c	8A-
16dd	.	.	.
=248	=248	=248	=248
16ee-	8e-]	8c]	8C
16dd	.	.	.
16cc	4e-	4A-	8C
16b-	.	.	.
16a-	.	.	8C
16g	.	.	.
16f	8e-	8A-	8C
16e-	.	.	.
=249	=249	=249	=249
8B-	8e-	8G	8BB-
8b-	8e-	8G	8BB-
8g	8e-	8G	8BB-
16f	8e-	8G	8BB-
16e-	.	.	.
=250	=250	=250	=250
2f	8d	8A-	8BB-
.	8d	8A-	8BB-
.	8d	8A-	8BB-
.	8d	8A-	8BB-
=251	=251	=251	=251
4e-	4e-	4G	4EE-
4ee-	4b-	4g	4r
=252	=252	=252	=252
4r	4r	4r	4G
4dd-	4b-	4e	4r
=253	=253	=253	=253
4r	4r	4r	4A-
4cc	4a-	4f	4r
=254	=254	=254	=254
4r	4r	4r	4A
4ccc	4gg-	4ee-	4r
=255	=255	=255	=255
4r	4r	4r	4B-
4bb-	4gg	4ee-	4r
=256	=256	=256	=256
4r	4r	4r	4BB-
4dd	4a-	4f	4r
=257	=257	=257	=257
4ee-	4g	4e-	8E-
.	.	.	8EE-
4r	4r	4r	8EE-
.	.	.	8EE-
=258	=258	=258	=258
8e-	4G	4E-	8EE-
8ee-	.	.	8EE-
8dd	8A-	8F	8EE-
[8dd-	8B-	8G	8EE-
=259	=259	=259	=259
8dd-]	4c	4A-	8EE-
8cc	.	.	8EE-
8b-	8d	8B-	8EE-
8a	8e-	8c	8EE-
=260	=260	=260	=260
8a-	2f	[2d	8EE-
16g	.	.	8EE-
16a-	.	.	.
8b-	.	.	8EE-
8a-	.	.	8EE-
=261	=261	=261	=261
4f#	2B-	4d]	8EE-
.	.	.	8EE-
8g	.	8e-	8EE-
8r	.	8r	8EE-
=262	=262	=262	=262
8e-	4G	4E-	8EE-
8ee-	.	.	8EE-
8dd	8A-	8F	8EE-
[8dd-	8B-	8G	8EE-
=263	=263	=263	=263
8dd-]	4c	4A-	8AA-
8cc	.	.	8AA-
8b-	[4e-	8G	8BB-
8a	.	8F#	8C
=264	=264	=264	=264
8b-	8e-]	8G	8BB-
8g	4B-	8E-	8BB-
8a-	.	8F	8BB-
8f	8A-	8D	8BB-
=265	=265	=265	=265
4e-	4G	4E-	8E-
.	.	.	8G
4r	4r	4r	8B-
.	.	.	8G
=266	=266	=266	=266
8ee-	4g	4e-	8E-
8eee-	.	.	8e-
8ddd	8a-	8f	8e-
[8ddd-	8b-	8g	8e-
=267	=267	=267	=267
8ddd-]	4cc	4a-	8e-
8ccc	.	.	8e-
8bb-	8dd	8b-	8e-
8aa	8ee-	8cc	8e-
=268	=268	=268	=268
8aa-	2ff	[2dd	8e-
16gg	.	.	8e-
16aa-	.	.	.
8bb-	.	.	8e-
8aa-	.	.	8e-
=269	=269	=269	=269
4ff#	2b-	4dd]	8e-
.	.	.	8e-
8gg	.	8ee-	8e-
8r	.	8r	8e-
=270	=270	=270	=270
8ee-	4g	4e-	8e-
8eee-	.	.	8e-
8ddd	8a-	8f	8e-
[8ddd-	8b-	8g	8e-
=271	=271	=271	=271
8ddd-]	4cc	4a-	8A-
8ccc	.	.	8A-
8bb-	[4ee-	8g	8B-
8aa	.	8f#	8c
=272	=272	=272	=272
8bb-	8ee-]	8g	8B-
8gg	4b-	8e-	8B-
8aa-	.	8f	8B-
8ff	8a-	8d	8B-
=273	=273	=273	=273
4ee-	4g	8e-	4E-
.	.	8b-	.
4r	4r	8b-	4r
.	.	8b-	.
=274	=274	=274	=274
8bb-	8gg	8b-	4r
8gg	8ee-	8b-	.
8aa-	8ff	8b-	4B-
8ff	8dd	8b-	.
=275	=275	=275	=275
4gg	4ee-	8b-	4e-
.	.	8B-	.
4r	4r	8B-	4E-
.	.	8B-	.
=276	=276	=276	=276
8b-	8g	8B-	4r
8g	8e-	8B-	.
8a-	8f	8B-	4BB-
8f	8d	8A-	.
=277	=277	=277	=277
4e-	4e-	4G	4EE-
4r	4r	4r	4E-
=278	=278	=278	=278
8e-	8G	2r	2r
8g	8e-	.	.
8f	8d	.	.
8a-	8f	.	.
=279	=279	=279	=279
8f#	8d	4r	4r
8g	8e-	.	.
4r	4r	4B-	4E-
=280	=280	=280	=280
8g	8e-	2r	2r
8b-	8g	.	.
8a-	8f	.	.
8cc	8a-	.	.
=281	=281	=281	=281
8a	8f#	4r	4r
8b-	8g	.	.
4r	4r	4B-	4E-
=282	=282	=282	=282
8b-	8g	2r	2r
8dd-	8b-	.	.
8cc	8a-	.	.
8ee-	8cc	.	.
=283	=283	=283	=283
8cc	8a	4r	4r
8dd-	8b-	.	.
4r	4r	8f#	8d#
.	.	8g	8e
=284	=284	=284	=284
8b	8g	4r	4r
8cc	8a-	.	.
4r	4r	8g	8e
.	.	8a-	8f
=285	=285	=285	=285
8b-	8g	4r	4r
8cc-	8a-	.	.
4r	4r	8e	8c#
.	.	8f	8d
=286	=286	=286	=286
8a	8f#	4r	4r
8b-	8g	.	.
4r	4r	8f#	8d
.	.	8g	8e-
=287	=287	=287	=287
8ee-	4r	4r	4r
8a	.	.	.
4r	8g-	4A	4C-
.	8e-	.	.
=288	=288	=288	=288
8cc	4r	4r	4r
8b-	.	.	.
4r	8d	4B-	4BB-
.	8f	.	.
=289	=289	=289	=289
8gg-	4r	4r	4r
8a	.	.	.
4r	8g-	4E-	4C-
.	8A	.	.
=290	=290	=290	=290
8cc	4r	4r	4r
8b-	.	.	.
4r	8c	4D	4BB-
.	8B-	.	.
=291	=291	=291	=291
8aa	8ee-	4r	4r
8bb-	8dd	.	.
4r	4r	8g-	8A
.	.	8f	8B-
=292	=292	=292	=292
8aa	8ee-	4r	4r
8bb-	8dd	.	.
4r	4r	8g-	8A
.	.	8f	8B-
=293	=293	=293	=293
2r	2r	2r	2r
=294	=294	=294	=294
8gg	8ee	4r	4r
8aa-	8ff	.	.
4r	4r	8e-	8c-
.	.	8d	8B-
=295	=295	=295	=295
8g	8e	4r	4r
8a-	8f	.	.
4r	4r	8E-	8C-
.	.	8D	8BB-
=296	=296	=296	=296
2r	2r	2r	2r
=297	=297	=297	=297
8b-	8g	8G	8E-
8g	8e-	8B-	8G
4r	4r	4r	4r
=298	=298	=298	=298
8ee-	8cc	8C	8AA-
8cc	8a-	8E-	8C
4r	4r	4r	4r
=299	=299	=299	=299
8a-	8f	8D	8BB-
8f	8d	8B-	8A-
8f	8d	8B-	8A-
8f	8d	8B-	8A-
=300	=300	=300	=300
4f	4d	[4B-	4A-
8b-	8e-	8B-]	8G
8r	8r	8r	8r
=301	=301	=301	=301
8b-	8g	8G	8E-
8g	8e-	8B-	8G
4r	4r	4r	4r
=302	=302	=302	=302
8ee-	8cc	8C	8AA-
8cc	8a-	8E-	8C
4r	4r	4r	4r
=303	=303	=303	=303
8a-	8f	8D	8BB-
8f	8d	8F	8BB-
8f	8d	8A-	8BB-
8f	8d	8A-	8BB-
=304	=304	=304	=304
4f	4d	4A-	4BB-
8e-	8e-	8G	8EE-
8r	8r	8r	8r
=305	=305	=305	=305
4bb-	8b-	8g	8E-
.	8g	8e-	8G
4bb	4r	4r	4r
=306	=306	=306	=306
4ccc	8ee-	8cc	8AA-
.	8cc	8a-	8C
8.aa-	4r	4r	4r
16gg	.	.	.
=307	=307	=307	=307
8ff	8a-	8f	8BB-
8bb-	8f	8d	8A-
8bb-	8f	8d	8A-
8bb-	8f	8d	8A-
=308	=308	=308	=308
8.bb-	4f	4d	4A-
32ccc	.	.	.
32bb-	.	.	.
8eee-	8b-	8g	8G
8r	8r	8r	8r
=309	=309	=309	=309
4.ee-	8b-	8g	8E-
.	8g	8e-	8G
.	4r	4r	4r
8ee	.	.	.
=310	=310	=310	=310
4.ff	8ee-	8cc	8AA-
.	8cc	8a-	8C
.	4r	4r	4r
16gg	.	.	.
16aa-	.	.	.
=311	=311	=311	=311
4.b-	8a-	8f	8BB-
.	8f	8A-	8BB-
.	8f	8A-	8BB-
16cc	8f	8A-	8BB-
16dd	.	.	.
=312	=312	=312	=312
4ee-	4e-	4G	8EE-
.	.	.	8E-
4r	4r	4r	8E-
.	.	.	8E-
=313	=313	=313	=313
8dd-	8b-	8B-	8E-
8b-	8g	8d-	8E-
4r	4r	4r	8E-
.	.	.	8E-
=314	=314	=314	=314
8ee-	8cc	8c	8E-
8cc	8a-	8e-	8E-
4r	4r	4r	8E-
.	.	.	8E-
=315	=315	=315	=315
8aa-	8ff	8d	8E-
8ff	8dd	8f	8E-
8ff	8dd	8a-	8E-
8ff	8dd	8a-	8E-
=316	=316	=316	=316
4ff	4dd	4a-	8E-
.	.	.	8E-
8bb-	8ee-	8g	8E-
8r	8r	8r	8E-
=317	=317	=317	=317
8dd-	8b-	8B-	8E-
8b-	8g	8d-	8E-
4r	4r	4r	8E-
.	.	.	8E-
=318	=318	=318	=318
8ee-	8cc	8c	8E-
8cc	8a-	8e-	8E-
4r	4r	4r	8E-
.	.	.	8E-
=319	=319	=319	=319
8aa-	8ff	8d	8E-
8ff	8dd	8f	8E-
8ff	8dd	8a-	8E-
8ff	8dd	8a-	8E-
=320	=320	=320	=320
[2ee-	4ee-	4g	8E-
.	.	.	8E-
.	4r	4r	8E-
.	.	.	8E-
=321	=321	=321	=321
2ee-_	8d-	8B-	8E-
.	8B-	8G	8E-
.	4r	4r	8E-
.	.	.	8E-
=322	=322	=322	=322
2ee-_	8e-	8c	8E-
.	8c	8A-	8E-
.	4r	4r	8E-
.	.	.	8E-
=323	=323	=323	=323
2ee-]	8a-	8f	8E-
.	8f	8d	8E-
.	8f	8d	8E-
.	8f	8d	8E-
=324	=324	=324	=324
[2eee-	8.b-	8.g	8E-
.	.	.	8EE-
.	32cc	32a-	.
.	32a-	32f	.
.	8g	8e-	8EE-
.	8r	8r	8EE-
=325	=325	=325	=325
2eee-_	8d-	8B-	8EE-
.	8B-	8G	8EE-
.	4r	4r	8EE-
.	.	.	8EE-
=326	=326	=326	=326
2eee-_	8e-	8c	8EE-
.	8c	8A-	8EE-
.	4r	4r	8EE-
.	.	.	8EE-
=327	=327	=327	=327
2eee-_	8a-	8D	8EE-
.	8f	8F	8EE-
.	8d	8A-	8EE-
.	8d	8A-	8EE-
=328	=328	=328	=328
8eee-]	4e-	4G	4EE-
8gg	.	.	.
8gg	4r	4r	4r
8gg	.	.	.
=329	=329	=329	=329
2r	8aa-	8d	2B-
.	8ff	8f	.
.	8dd	8a-	.
.	8dd	8a-	.
=330	=330	=330	=330
8ee-	8ee-	8g	8e-
8b-	4.r	4.r	4.r
8g	.	.	.
8g	.	.	.
=331	=331	=331	=331
2r	8a-	8D	2BB-
.	8f	8F	.
.	8d	8A-	.
.	8d	8A-	.
=332	=332	=332	=332
8e-	8e-	8G	8E-
8B-	4.r	4.r	4.r
8G	.	.	.
8G	.	.	.
=333	=333	=333	=333
2r	2r	8A-	8DD
.	.	8F	8FF
.	.	8D	8AA-
.	.	8D	8AA-
=334	=334	=334	=334
2r	2r	8E-	8GG
.	.	4.r	4.r
=335	=335	=335	=335
8bb-	8b-	2r	2r
4.r	4.r	.	.
=336	=336	=336	=336
8gg	8ee-	2r	2r
4.r	4.r	.	.
=337	=337	=337	=337
8ff	8b-	2r	2r
4.r	4.r	.	.
=338	=338	=338	=338
8ee-	8g	2r	2r
4.r	4.r	.	.
=339	=339	=339	=339
8bb- 8b- 8d	8ff 8b- 8d	8B-	8BB-
4.r	4.r	4.r	4.r
=340	=340	=340	=340
8gg 8b- 8e-	8gg 8b- 8e-	8e-	8E-
4.r	4.r	4.r	4.r
=341	=341	=341	=341
8ff 8b- 8d	8dd 8f 8B-	8B-	8BB-
4.r	4.r	4.r	4.r
=342	=342	=342	=342
8ee- 8e- 8G	8ee- 8g 8B-	8E-	8EE-
4.r	4.r	4.r	4.r
==	==	==	==
*-	*-	*-	*-
!!!RWG1: This file contains only pitch and duration data.
!!!RWG2: Transposing instruments are not transposed.
!!!RWG3: Spines may have incompatible meters.
!!!RWG4: Durations of rests and tied notes may be interpreted.
!!!RWG: Key is interpreted using the Humdrum key tool.
!!!AFT: stage1
!!!END: 1997/04/15
!!format changes:
!!content changes:
!!public access: complete
!!!KEY: 2001561350
!!!EMD: Converted from MuseData to Humdrum Dec 16, 2000, by Andreas Kornstaedt using muse2kern.
